X:249
T:Fairy Jig, The
M:9/8
L:1/8
R:slipjig
D:Altan: Altan.
Z:id:hn-slipjig-38
K:Dmix
A2G Add Add|ABG Add fef|A2G Add Add|cAG A2G FED:|
abf add Add|a2f add bag|a2f add Add|abf a2g fed|
abf add Add|a2f add bag|a2a baf abg|fed cAG FED||
